X: 1
T: Winyadepla
T: Fetlar Reel
T: Faider's T\"on
D: Aly Bain & Ale M\"oller "Fully Rigged"
Z: 2005 John Chambers <jc:trillian.mit.edu>
N: Supposedly originated in 1803, when one Gibbie Laurenson was given the tune
N: by  visiting  trowies.  Originally called 'Faider's Tn' (father's tune) by
N: his fiddler son.  Later renamed 'Winyadepla' after a loch near the Fir  Vaa
N: water-mill.  'Fetlar Reel' is after the island where the tune originated.
M: 2/4
L: 1/8
K: A
|: "A"{d}c2eA    c2-  cB | "A"c2    eA "F#m"F4 |  "A"c2eA       c2cB    | "A"cdec    "E7"B4 :|
[| "A"{d}cAA2 "D"fa"A"ea | "D"fa"E7"ed "A"cAA2 |  "A"{d}cAA2 "D"fa"A"ea | "D"fa"A"ec "E7"B4 ||
|| "A"{d}cAA2 "D"fa"A"ea | "D"fa"E7"ed "A"cAA2 |  "D"{g}a2ag    afec    | "E7"B4-        B4 |]
